X: 1607
T: Anna Thug Mi Gradh Dhuit
R: reel
M: 4/4
K: Amajor
A2AE CEAB|ceBc AFFG|AEAE CEAB|1 cAec B/B/B AB:|2 cAec B/B/B ed||
ceec eAef|ecBA BFFB|ceec ef/=g/ f2|fgag fefg|
agfe fgaf|ecBc AFFG|AcEF CEEd|cAec B2AB||

